X:1
T:D minor Thomas Tallis, 1567
T:Matthew Parker?, 1567 446. 446. 446. 446. 
T:Psalm 68 No copyright. Transcribed from The Whole Psalter Translated, 1567.
%%score [ 1 2 3 4 ]
L:1/8
M:24/4
K:F
V:1 treble nm="Meane" snm="M."
V:2 treble nm="Counter\nTenor" snm="C."
V:3 treble-8 nm="Tenor" snm="T."
V:4 bass nm="Bass" snm="B."
V:1
 d4 f2 e2 d2 d2 d2 ^c2 d2 f2 e2 d2 d2 c2 d4 z4 | f2 b2 a2 g2 z2 g2 g2 f2 g2 b2 a2 g2 g2 ^f2 g4 z4 | %2
 e2 a2 g2 c2 f2 f2 e2 f2 a2 g2 f2 f2 e2 f4 z4 | f2 c2 d2 e2 g2 f2 ed c2 d2 f2 e3 d d4 ^c2 d16 |] %4
V:2
"^1. Let God arise In majesty, And scattered be His foes:  Yea, flee them all His sight in face,  To him which hateful goes." A4 A2 A2 A2 G2 A3 A A2 A2 A2 FG A2 A2 A4 z4 | %1
 d2 d4 d2 d2 d2 d2 d2 d2 d2 d2 Bc d2 d2 d4 z4 | %2
"^1. As smoke is driv'n, And comes to naught, Repulse their tyranny; At face of fire As war doth melt, God's face the bad must flee." c2 c2 c2 c2 B2 c2 c2 c2 c2 c2 AB c2 c2 c4 z4 | %3
 A2 A2 A2 c2 c2 A2 A2 A2 A2 F2 c2 A6 A2 A16 |] %4
V:3
 d4 d2 e2 f2 d2 e3 e d2 d2 c2 d2 e2 e2 d4 z4 | d2 g2 a2 b2 z2 g2 a2 a2 g2 g2 f2 g2 a2 a2 g4 z4 | %2
 c2 f2 g2 a2 f2 g2 g2 f2 f2 e2 f2 g2 g2 f4 z4 | f2 e2 f2 g2 e2 f2 f2 e2 d2 d2 c2 d4 e4 d16 |] %4
V:4
 D,4 D,2 C,2 D,2 B,,2 A,,3 A,, D,2 D,2 A,,2 B,,2 A,,2 A,,2 D,4 z4 | %1
 D,2 G,,2 ^F,,2 G,,2 z2 G,,2 D,2 D,2 G,,2 G,,2 D,2 _E,2 D,2 D,2 G,,4 z4 | %2
 C,2 F,,2 C,2 F,2 D,2 C,2 C,2 F,,2 F,,2 C,2 D,2 C,2 C,2 F,,4 z4 | %3
 D,2 A,,2 D,2 C,2 C,2 D,2 D,2 A,,2 D,2 A,3 G, F,2 D,2 A,,4 D,16 |] %4

